src/images/std-icons/std-credit_card.svg

<svg xmlns="http://www.w3.org/2000/svg" width="512" height="512" viewBox="0 0 512 512">
  <title>credit card</title>
  <path fill="#000" fill-rule="nonzero" d="M85.3333333 352C85.6114789 360.76545 89.360308 369.061393 95.7551147 375.062803 102.149921 381.064213 110.666872 384.279481 119.43232 384.00128L119.466667 384 392.533333 384C410.785694 384.597954 426.066917 370.286278 426.666667 352.03392L426.666667 352 426.666667 341.333333 85.3333333 341.333333 85.3333333 352zM392.56768 127.99872L392.533333 128 119.466667 128C110.701605 127.712333 102.181288 130.918494 95.780226 136.913114 89.3791642 142.907733 85.6217429 151.199721 85.3333333 159.9648L85.3333333 160 85.3333333 298.666667 426.666667 298.666667 426.666667 160C426.388521 151.23455 422.639692 142.938607 416.244885 136.937197 409.850079 130.935787 401.333128 127.720519 392.56768 127.99872zM234.666667 234.666667L149.333333 234.666667C137.551259 234.666667 128 225.115408 128 213.333333 128 201.551259 137.551259 192 149.333333 192L234.666667 192C246.448741 192 256 201.551259 256 213.333333 256 225.115408 246.448741 234.666667 234.666667 234.666667z"/>
</svg>

<svg xmlns="http://www.w3.org/2000/svg" viewBox="0 0 512 512">
  <title>
    credit card
  </title>
  <path d="M85.33 352a33.07 33.07 0 0 0 34.1 32h273.1a33.07 33.07 0 0 0 34.14-31.97v-10.7H85.33V352zm307.24-224h-273.1a33.07 33.07 0 0 0-34.14 31.96V298.67h341.34V160a33.07 33.07 0 0 0-34.1-32zm-157.9 106.67h-85.34a21.33 21.33 0 0 1 0-42.67h85.34a21.33 21.33 0 0 1 0 42.67z"/>
</svg>
